frontend/Idle/src/assets/images/arrowOption.svg

<svg width="14" height="24" viewBox="0 0 14 24" fill="none" xmlns="https://www.w3.org/2000/svg">
<g id="Arrow - Down 2">
<path id="Stroke 1" d="M0.952552 23.2935C0.553152 22.8941 0.516843 22.2691 0.843624 21.8287L0.952552 21.7026L10.6565 11.998L0.952551 2.29354C0.553151 1.89414 0.516842 1.26914 0.843624 0.828728L0.952551 0.702551C1.35195 0.30315 1.97695 0.266842 2.41736 0.593622L2.54354 0.702551L13.0435 11.2026C13.4429 11.602 13.4793 12.2269 13.1525 12.6674L13.0435 12.7935L2.54354 23.2935C2.1042 23.7329 1.39189 23.7329 0.952552 23.2935Z" fill="#1A3276"/>
</g>
</svg>

<svg width="14" height="24" fill="none" xmlns="https://www.w3.org/2000/svg"><path d="M.953 23.294c-.4-.4-.436-1.025-.11-1.465l.11-.126 9.703-9.705L.954 2.294c-.4-.4-.436-1.025-.11-1.465l.11-.126c.399-.4 1.024-.436 1.464-.11l.127.11 10.5 10.5c.399.399.435 1.024.108 1.464l-.108.127-10.5 10.5c-.44.439-1.152.439-1.591 0z" fill="#1A3276"/></svg>
